X:1
T:Ejercicio Nº 1 
M:2/4
L: 1/4
Q: 1/4=90
V: Der
K:C clef=treble
  cd | ec | dd | e2 |  
  ef | ge | ff | g2 |
  gf | ec | dd | e2 |
  gf | ec | dd | c2 |

